!!!!SEGMENT: pl-kk--kk-i-344_gorczycki-grzegorz-gerwazy--o-rex-gloriae-domine.krn
!!!id: 17xx:2157
!!!COM: Gorczycki, Grzegorz Gerwazy
!!!COM-rism: pe30009207
!!!CDT: ~1666-1734/04/30
!!!CNT: Polish
!!!OTL: O Rex gloriae Domine
!!!PDT:
!!!SMS-siglum: PL-Kk
!!!SMS-shelfmark: Kk.I.344
!!!NIFC-rismID: 1001145427
!!!URL-scan: http://repozytorium.nifc.pl/skany/pl-kk-nut--i-344
!!!ONB-nifc:
!!!SMS-variant:
!!!SMS-altvar:
**kern	**fb	**text	**kern	**text	**kern	**text	**kern	**text
*part4	*	*part4	*part3	*part3	*part2	*part2	*part1	*part1
*staff4	*	*staff4	*staff3	*staff3	*staff2	*staff2	*staff1	*staff1
*I"Baſsus	*	*	*I"Tenore	*	*I"Alto	*	*I"Canto	*
*I'B	*	*	*I'T	*	*I'A	*	*I'S	*
*clefF4	*	*	*clefC4	*	*clefC3	*	*clefC1	*
*k[]	*	*	*k[]	*	*k[]	*	*k[]	*
*M3/2	*	*	*M3/2	*	*M3/2	*	*M3/2	*
=1-	=1-	=1-	=1-	=1-	=1-	=1-	=1-	=1-
*	*above	*	*	*	*	*	*	*
!LO:TX:a:i:t=RD. GGG.	!	!	!	!	!	!	!	!
2.D/	.	O	1d	O	1f	O	1a	O
4E\	.	.	.	.	.	.	.	.
*	*	*	*2\right	*	*2\right	*	*	*
!	!	!	!LO:TX:t=P:problem:kreska pseudotaktowa	!	!LO:TX:t=P:problem:kreska pseudotaktowa	!	!	!
4F\	X 6	rex	2d\	rex	2f\	rex	(>4a\	rex
.	X 5	.	.	.	.	.	.	.
!LO:TX:t=P:problem:kreska pseudotaktowa	!	!	!	!	!	!	!LO:TX:t=P:problem:kreska pseudotaktowa	!
4G\	.	.	.	.	.	.	4dd\)	.
=2-	=2-	=2-	=2-	=2-	=2-	=2-	=2-	=2-
*2\right	*	*	*	*	*	*	*2\right	*
2.A\	.	glo-	2.d\	glo-	2.e\	glo-	2.a\	glo-
.	X 4	.	.	.	.	.	.	.
4A\	X 3	-ri-	4d\	-ri-	4e\	-ri-	4a\	-ri-
!LO:TX:t=P:problem:kreska pseudotaktowa	!	!	!LO:TX:t=P:problem:kreska pseudotaktowa	!	!LO:TX:t=P:problem:kreska pseudotaktowa	!	!LO:TX:t=P:problem:kreska pseudotaktowa	!
2A\	.	-a	2c#X\	-ae	2e\	-ae	2a\	-ae
=3-	=3-	=3-	=3-	=3-	=3-	=3-	=3-	=3-
2F\	.	Do-	2A/	Do-	2f\	Do-	2a\	D(o-
4A\	.	-mi-	4cn\	-mi-	4f\	-mi-	4a\	-mi)-
4A\	.	-ne	4c\	-ne	4f\	-ne	4a\	-ne
!LO:TX:t=P:problem:kreska pseudotaktowa	!	!	!LO:TX:t=P:problem:kreska pseudotaktowa	!	!LO:TX:t=P:problem:kreska pseudotaktowa	!	!LO:TX:t=P:problem:kreska pseudotaktowa	!
2c\	.	vir-	2c\	vir-	2e\	vir-	2g/	vir-
=4-	=4-	=4-	=4-	=4-	=4-	=4-	=4-	=4-
1F	.	-tu-	1c	-tu-	1f	-tu-	1a	-tu-
!LO:TX:t=P:problem:kreska pseudotaktowa	!	!	!LO:TX:t=P:problem:kreska pseudotaktowa	!	!LO:TX:t=P:problem:kreska pseudotaktowa	!	!LO:TX:t=P:problem:kreska pseudotaktowa	!
2F\	.	-t(um)	2c\	-t(um)	2f\	-t(um)	2a\	-t(um)
=5-	=5-	=5-	=5-	=5-	=5-	=5-	=5-	=5-
2C/	.	qvi	2c\	qvi	2e\	qvi	2g/	qui
2E\	X 6	tri-	2c\	tri-	2e\	tri-	2g/	tri-
!LO:TX:t=P:problem:kreska pseudotaktowa	!	!	!LO:TX:t=P:problem:kreska pseudotaktowa	!	!LO:TX:t=P:problem:kreska pseudotaktowa	!	!LO:TX:t=P:problem:kreska pseudotaktowa	!
2G\	.	-um-	2G/	-um-	2d\	-um-	2g/	-um-
=6-	=6-	=6-	=6-	=6-	=6-	=6-	=6-	=6-
1C	.	-pha-	1G	-pha-	1e	-pha-	1g	-pha-
!LO:TX:t=P:problem:kreska pseudotaktowa	!	!	!LO:TX:t=P:problem:kreska pseudotaktowa	!	!LO:TX:t=P:problem:kreska pseudotaktowa	!	!LO:TX:t=P:problem:kreska pseudotaktowa	!
2C/	.	-tor	2c\	-tor	2e\	-tor	2g/	-tor
!LO:LB:g=original	!	!	!	!	!	!	!	!
=7-	=7-	=7-	=7-	=7-	=7-	=7-	=7-	=7-
2.F\	.	ho-	2.A/	ho-	2.f\	ho-	2.a\	ho-
4F\	.	-di-	4A/	-di-	4f\	-di-	4a\	-di-
!LO:TX:t=P:problem:kreska pseudotaktowa	!	!	!LO:TX:t=P:problem:kreska pseudotaktowa	!	!LO:TX:t=P:problem:kreska pseudotaktowa	!	!LO:TX:t=P:problem:kreska pseudotaktowa	!
2F\	.	-e	2A/	-e	2c/	-e	2a\	-e
!	!	!	!LO:LB:g=original	!	!LO:LB:g=original	!	!LO:LB:g=original	!
=8-	=8-	=8-	=8-	=8-	=8-	=8-	=8-	=8-
2.D\	.	as-	1F	as-	(>4d\	as-	2r	.
.	.	.	.	.	4e\)	-cen-	.	.
.	.	.	.	.	(>4f\	.	2r	.
4E\	.	-cen-	.	.	4g\)	-di-	.	.
!	!	!	!LO:TX:t=P:problem:kreska pseudotaktowa	!	!LO:TX:t=P:problem:kreska pseudotaktowa	!	!	!
4F\	X 6	.	2d\	-cen-	2a\	-sti	(>4a\	a-
!LO:TX:t=P:problem:kreska pseudotaktowa	!	!	!	!	!	!	!LO:TX:t=P:problem:kreska pseudotaktowa	!
4G\	.	.	.	.	.	.	4b\)	-scen-
=9-	=9-	=9-	=9-	=9-	=9-	=9-	=9-	=9-
1A	.	-dis-	1c#X	-dis-	2a\	.	4cc#X\	.
.	.	.	.	.	.	.	4dd\	-di-
.	.	.	.	.	2e\	as-	2ee\	.
!LO:TX:t=P:problem:kreska pseudotaktowa	!	!	!LO:TX:t=P:problem:kreska pseudotaktowa	!	!LO:TX:t=P:problem:kreska pseudotaktowa	!	!LO:TX:t=P:problem:kreska pseudotaktowa	!
2A\	.	-ti	2c#\	-ti	2a\	-cen-	2ee\	-sti
=10-	=10-	=10-	=10-	=10-	=10-	=10-	=10-	=10-
2.d\	.	su-	2.d\	su-	2.a\	-di-	2.dd\	su-
4A\	X 6	-per	4f\	-per	4a\	-sti	4cc#\	-per
!LO:TX:t=P:problem:kreska pseudotaktowa	!	!	!LO:TX:t=P:problem:kreska pseudotaktowa	!	!	!	!	!
2B-X\	X 5	o-	2f\	o-	4f\	su-	(>4b-X\	om-
!	!	!	!	!	!LO:TX:t=P:problem:kreska pseudotaktowa	!	!LO:TX:t=P:problem:kreska pseudotaktowa	!
.	.	.	.	.	4f\	-per	4cc#\)	.
=11-	=11-	=11-	=11-	=11-	=11-	=11-	=11-	=11-
2G\	6 5	-mnes	2e\	-mnes	4b-X\	o-	2dd\	-nes
.	.	.	.	.	4b-\	-(mnes)	.	.
!	!	!	!LO:TX:t=P:problem:kreska pseudotaktowa	!	!LO:TX:t=P:problem:kreska pseudotaktowa	!	!	!
1A	X 4	Coe-	1e	Coe-	1a	Coe-	2dd\	Coe-
*	*reverse	*	*	*	*	*	*	*
!	!	!	!	!	!	!	!LO:TX:t=P:problem:kreska pseudotaktowa	!
.	X 3#	.	.	.	.	.	2cc#X\	-los
=12-	=12-	=12-	=12-	=12-	=12-	=12-	=12-	=12-
1D	.	-los	1d,	-los	1f#X	-los	1dd	.
!LO:TX:t=P:problem:kreska pseudotaktowa	!	!	!LO:TX:t=P:problem:kreska pseudotaktowa	!	!LO:TX:t=P:problem:kreska pseudotaktowa	!	!LO:TX:t=P:problem:kreska pseudotaktowa	!
2r	.	.	2d\	ne	2fn\	ne	2a\	ne
=13-	=13-	=13-	=13-	=13-	=13-	=13-	=13-	=13-
!LO:TX:a:t=2	!	!	!	!	!	!	!	!
!LO:TX:t=P:problem:kreska pseudotaktowa	!	!	!	!	!	!	!	!
0.r	.	.	1d	de-	1e	de-	1g	de-
!	!	!	!LO:TX:t=P:problem:kreska pseudotaktowa	!	!LO:TX:t=P:problem:kreska pseudotaktowa	!	!LO:TX:t=P:problem:kreska pseudotaktowa	!
.	.	.	2c#X\	-re-	2e\	-re-	2a\	-re-
=14-	=14-	=14-	=14-	=14-	=14-	=14-	=14-	=14-
.	.	.	2d\	-liq-	2f\	-liq-	2a\	-liq-
.	.	.	2c\	-vas	4e\	-vas	2a\	-vas
.	.	.	.	.	4f\	.	.	.
!	!	!	!LO:TX:t=P:problem:kreska pseudotaktowa	!	!LO:TX:t=P:problem:kreska pseudotaktowa	!	!LO:TX:t=P:problem:kreska pseudotaktowa	!
.	.	.	2B-X\	nos	2g\	.	2dd\	nos
!	!	!	!	!	!LO:LB:g=original	!	!	!
=15-	=15-	=15-	=15-	=15-	=15-	=15-	=15-	=15-
2r	.	.	2.A/	Or-	2.e\	Or-	2.cc#X\	or-
2r	.	.	.	.	.	.	.	.
.	.	.	4A/	-pha-	4e\	-pha-	4cc#\	-pha-
!LO:TX:t=P:problem:kreska pseudotaktowa	!	!	!	!	!	!	!	!
2A\	.	sed	4A,/	-nos	4e\	-nos	4cc#\	.
!	!	!	!LO:TX:t=P:problem:kreska pseudotaktowa	!	!LO:TX:t=P:problem:kreska pseudotaktowa	!	!LO:TX:t=P:problem:kreska pseudotaktowa	!
.	.	.	4A/	sed	4e\	sed	4cc#\	-nos
!	!	!	!LO:LB:g=original	!	!	!	!LO:LB:g=original	!
=16-	=16-	=16-	=16-	=16-	=16-	=16-	=16-	=16-
2D/	.	mit-	2A/	mit-	2f\	mit-	2dd\	Sed
2D/	.	-te	2A/	-te	2f\	-te	2dd\	mit-
!LO:TX:t=P:problem:kreska pseudotaktowa	!	!	!LO:TX:t=P:problem:kreska pseudotaktowa	!	!LO:TX:t=P:problem:kreska pseudotaktowa	!	!LO:TX:t=P:problem:kreska pseudotaktowa	!
2G\	.	pro-	2G/	pro-	2d\	pro-	2bn\	-te
!LO:LB:g=original	!	!	!	!	!	!	!	!
=17-	=17-	=17-	=17-	=17-	=17-	=17-	=17-	=17-
2C/	.	-miſ-	1G	-miſ-	1e	-miſ-	1ccny	pro-
2C/	.	-sum	.	.	.	.	.	.
!LO:TX:t=P:problem:kreska pseudotaktowa	!	!	!LO:TX:t=P:problem:kreska pseudotaktowa	!	!LO:TX:t=P:problem:kreska pseudotaktowa	!	!LO:TX:t=P:problem:kreska pseudotaktowa	!
2F\	.	Pa-	2A,/	-s(um)	2c/	-s(um)	2cc\	-miſ-
=18-	=18-	=18-	=18-	=18-	=18-	=18-	=18-	=18-
1D,<	.	-tris	2d\	Pa-	2f\	Pa-	2b\	-sum
.	.	.	2d,\	-tris	2f\	-tris	2b\	.
!LO:TX:t=P:problem:kreska pseudotaktowa	!	!	!LO:TX:t=P:problem:kreska pseudotaktowa	!	!LO:TX:t=P:problem:kreska pseudotaktowa	!	!LO:TX:t=P:problem:kreska pseudotaktowa	!
2D/	.	in	2d\	in	2f\	in	2a\	Pa-
=19-	=19-	=19-	=19-	=19-	=19-	=19-	=19-	=19-
!LO:TX:t=P:problem:kreska pseudotaktowa	!	!	!LO:TX:t=P:problem:kreska pseudotaktowa	!	!LO:TX:t=P:problem:kreska pseudotaktowa	!	!LO:TX:t=P:problem:kreska pseudotaktowa	!
1.E	.	nos	1.Bny	nos	1.e	nos	1.g#X	-tris
=20-	=20-	=20-	=20-	=20-	=20-	=20-	=20-	=20-
!LO:TX:t=P:problem:kreska pseudotaktowa	!	!	!	!	!	!	!	!
0.r	.	.	2.e\	Spi-	2.g#X\	Spi-	2.b\	Spi-
.	.	.	4e\	-ri-	4g#\	-ri-	4b\	-ri-
!	!	!	!LO:TX:t=P:problem:kreska pseudotaktowa	!	!LO:TX:t=P:problem:kreska pseudotaktowa	!	!LO:TX:t=P:problem:kreska pseudotaktowa	!
.	.	.	2e\	-t(um)	2g#\	-t(um)	2b\	-t(um)
=21-	=21-	=21-	=21-	=21-	=21-	=21-	=21-	=21-
*	*	*	*	*	*	*	*	*ij
.	.	.	2c\	ve-	2a\	ve-	2.ee\	Spi-
.	.	.	2A\	-ri-	2a\	-ri-	.	.
.	.	.	.	.	.	.	4ee\	-ri-
!	!	!	!LO:TX:t=P:problem:kreska pseudotaktowa	!	!LO:TX:t=P:problem:kreska pseudotaktowa	!	!LO:TX:t=P:problem:kreska pseudotaktowa	!
.	.	.	2e\	-ta-	2g#X\	-ta-	2ee\	-t(um)
*	*	*	*	*	*	*	*	*Xij
!	!	!	!	!	!LO:LB:g=original	!	!	!
=22-	=22-	=22-	=22-	=22-	=22-	=22-	=22-	=22-
!	!	!	!LO:TX:t=P:problem:kreska pseudotaktowa	!	!	!	!	!
2.A\	.	Spi-	1.A,<	-tis	1a	-tis	2cc\	ve-
.	.	.	.	.	.	.	2a\	-ri-
4A\	.	-ri-	.	.	.	.	.	.
!LO:TX:t=P:problem:kreska pseudotaktowa	!	!	!	!	!LO:TX:t=P:problem:kreska pseudotaktowa	!	!LO:TX:t=P:problem:kreska pseudotaktowa	!
2A\	.	-t(um)	.	.	2re	.	2ee\	-ta-
=23-	=23-	=23-	=23-	=23-	=23-	=23-	=23-	=23-
2F\	X 6	ve-	2.d\	ve-	2.a\	Spi-	1a	-tis
2D\	.	-ri-	.	.	.	.	.	.
.	.	.	4d\	-ri-	4a\	-ri-	.	.
!LO:TX:t=P:problem:kreska pseudotaktowa	!	!	!LO:TX:t=P:problem:kreska pseudotaktowa	!	!LO:TX:t=P:problem:kreska pseudotaktowa	!	!	!
2A\	.	-ta-	2c#X\	-ta-	2a\	-t(um)	2r	.
!	!	!	!LO:LB:g=original	!	!	!	!	!
=24-	=24-	=24-	=24-	=24-	=24-	=24-	=24-	=24-
1D,<	.	-tis	1d,	-tis	2f\	ve-	2rcc	.
.	.	.	.	.	2d\	-ri-	2.dd\	al-
!LO:TX:t=P:problem:kreska pseudotaktowa	!	!	!LO:TX:t=P:problem:kreska pseudotaktowa	!	!LO:TX:t=P:problem:kreska pseudotaktowa	!	!	!
2F\	.	al-	2A/	al-	2a\	-ta-	.	.
!	!	!	!	!	!	!	!LO:TX:t=P:problem:kreska pseudotaktowa	!
.	.	.	.	.	.	.	4cc\	.
!	!	!	!	!	!	!	!LO:LB:g=original	!
=25-	=25-	=25-	=25-	=25-	=25-	=25-	=25-	=25-
1.G	.	-le-	1.B	-le-	2d\	-tis	2b\	.
.	.	.	.	.	2.g\ny	al-	2ee\	.
!	!	!	!	!	!	!	!LO:TX:t=P:problem:kreska pseudotaktowa	!
.	.	.	.	.	.	.	2dd\	.
!	!	!	!	!	!LO:TX:t=P:problem:kreska pseudotaktowa	!	!	!
.	.	.	.	.	4f\	-le-	.	.
=26-	=26-	=26-	=26-	=26-	=26-	=26-	=26-	=26-
1.A	.	-lu-	1c#X	.	1e	.	2cc#X\	.
.	.	.	.	.	.	.	(>2a\	.
!	!	!	!LO:TX:t=P:problem:kreska pseudotaktowa	!	!LO:TX:t=P:problem:kreska pseudotaktowa	!	!LO:TX:t=P:problem:kreska pseudotaktowa	!
.	.	.	2d\	.	2f\	.	2dd\)	-le-
=27-	=27-	=27-	=27-	=27-	=27-	=27-	=27-	=27-
1AA	.	.	1d	.	1.e	-lu-	1.a	-lu-
2AA/	.	-ia	2c#X\	-lu-	.	.	.	.
=28-	=28-	=28-	=28-	=28-	=28-	=28-	=28-	=28-
0.D;>l	.	.	0.d;;l	-ia.	0.f#X;;l	-ia.	0.a;;l	-ia
=29-	=29-	=29-	=29-	=29-	=29-	=29-	=29-	=29-
.	.	.	.	.	.	.	.	.
==	==	==	==	==	==	==	==	==
*-	*-	*-	*-	*-	*-	*-	*-	*-
!!!system-decoration: [(s1,s2,s3,s4)]
!!!RDF**kern: l = terminal long
!!!RDF**kern: > = above
!!!RDF**kern: < = below
!!!EED: Antoni Szymański
!!!EST: 2021-03-25
!!!ENC:Anastazja Marusiak
!!!END:2021-03-23
